X:80
T:The Milk-Maid's Bob
M:6/8
L:1/8
K:G
dde ddB|cAc B2G|dde f>ga|geg f2d||
dgd e>cA|eae f>ed|dgd g>ab|b>ab g3||
%
%
